X:1
T: Congress Park
C:
R:Reel
Q: 232
K:Em
M:4/4
L:1/8
|:D2|G3B de dB|de dB dc BA|G3B de dB|Ac fe dc BA|
G3B de dB|de dB dc AF|G2 g4 g2|g2 f2 g2 ef|
ge be ge be|fe ^df dB df|ge be ge be|fe ^df eB eg|
ge be ge be|fe ^df dB df|ge be ge be|fe ^df e2:|
